X: 31196
T: Paddy Fahey's
R: reel
M: 4/4
K: Dmajor
ADFA de/4d/4c/dc|ADFA GE=CE|ADFA dcAF G2 FA GE=CE|
ADFA de/4d/4c/dc|ADFA GE=CE|Add/c/d aded|B=cG=F E=CEG|
G3 d adbd|aded cA A2-|Ad d/c/d aded B=cG=F E=CEG|
Add/c/d adbd|aded cA A2|defd cedc|AGFG Ad d2||
A2 GF Ad d2|A2 GF G=CEG|ADFA dcAF G2 FA E=CEG|
FDFA de/4d/4c/dc|ADFA GE=CE|Add/c/d aded B=cG=F E=CEG|

